!!!COM: Frank Martin
!!!OTL: [T541_Mai-w11p25h9m1-12]
**kern	**kern	**dynam	**kern	**dynam	**kern	**dynam
*grp:A	*grp:A	*grp:A	*grp:B	*grp:B	*grp:B	*grp:B
*part3	*part3	*	*part2	*part2	*part1	*part1
*staff4	*staff3	*	*staff2	*	*staff1	*
*I"Piano	*	*	*I"Violoncello	*	*I"Violin	*
*I'Pno.	*	*	*I'Vc.	*	*I'Vln.	*
!!pagebreak:original
*clefF4	*clefG2	*	*clefC4	*	*clefG2	*
*k[f#c#g#d#]	*k[f#c#g#d#]	*	*k[f#c#g#d#]	*	*k[f#c#g#d#]	*
*E:	*E:	*	*E:	*	*E:	*
*M6/8	*M6/8	*	*M6/8	*	*M6/8	*
!!LO:REH:t=9
=1	=1	=1	=1	=1	=1	=1
!	!	!	!	!	!LO:TX:t=[quarter-dot]=144	!
!	!	!LO:DY:ed=brack	!	!LO:DY:ed=brack	!	!LO:DY:ed=brack
!	!	!LO:DY:t=meno %s sempre staccato	!	!LO:DY:t=meno %s	!	!LO:DY:t=meno %s
8DDn^^ 8AA 8BB	8B'L 8d#X	p	8ryy	4ryy	8ryy	4ryy
8r	8c#' 8e	.	8ryy	.	8ryy	.
8r	8d#'J 8f#	.	8ryy	.	8ryy	.
4r	8c#'L 8e	.	8ryy	.	8ryy	.
.	8d#' 8f#	.	8ryy	.	8ryy	.
8DD^^ 8AA 8BB	8e'J 8g#	.	8ryy	.	8ryy	.
=2	=2	=2	=2	=2	=2	=2
8r	8d#'L 8f#	.	8ryy	.	8ryy	.
8r	8e' 8g#	.	8ryy	.	8ryy	.
8DDn^^ 8AA 8BB	8f#'J 8a#X	.	8ryy	.	8ryy	.
8r	8e'L 8g#	.	8ryy	.	8ryy	.
8r	8f#' 8a#	.	8ryy	.	8ryy	.
8r	8g#'J 8b	.	8ryy	.	8ryy	.
=3	=3	=3	=3	=3	=3	=3
4r	8an'L 8cc#	.	8ryy	.	8ryy	.
.	8b' 8dd#	.	8ryy	.	8ryy	.
8r	8cc#'J 8ee	.	8ryy	.	8ryy	.
8r	8r	.	4.ryy	.	4.ryy	.
8AAA^^ 8AA 8BB	8cc#'L 8ee 8gg#	.	.	.	.	.
8r	8dd#'J 8ff#	.	.	.	.	.
=4	=4	=4	=4	=4	=4	=4
8DDn^^ 8AA 8BB	8b' 8dd#X 8ff#	.	8ryy	.	8ryy	.
8r	8r	.	8ryy	.	8ryy	.
8r	8r	.	8ryy	.	8ryy	.
8r	8r	.	4.ryy	.	4.ryy	.
8AAA^^ 8AA 8BB	8c#'L 8e 8g#	.	.	.	.	.
8r	8d#'J 8f#	.	.	.	.	.
=5	=5	=5	=5	=5	=5	=5
8DDn^^ 8AA 8BB	8B^^ 8d#X 8f#	.	8ryy	.	8ryy	.
8r	8r	.	8ryy	.	8ryy	.
8r	8r	.	8ryy	.	8ryy	.
4r	4r	.	8ryy	.	8ryy	.
.	.	.	8ryy	.	8ryy	.
8Dn 8A	8B^^ 8d#X 8f#	.	8ryy	.	8ryy	.
=6	=6	=6	=6	=6	=6	=6
4r	4r	.	8ryy	.	8ryy	.
.	.	.	8ryy	.	8ryy	.
8Dn 8A	8B^^ 8d#X 8f#	.	8ryy	.	8ryy	.
4.r	4.r	.	8ryy	.	8ryy	.
.	.	.	8ryy	.	8ryy	.
.	.	.	8ryy	.	8ryy	.
!!linebreak:original
=7	=7	=7	=7	=7	=7	=7
4r	4r	.	8ryy	.	8ryy	.
.	.	.	8ryy	.	8ryy	.
8r	8r	.	8ryy	.	8ryy	.
8r	8r	.	4.ryy	.	4.ryy	.
8AA^^ 8A 8B	(8c#^^L 8e 8g#	.	.	.	.	.
8r	8d#J 8f#)	.	.	.	.	.
=8	=8	=8	=8	=8	=8	=8
8Dn^^ 8A 8B	8B^^ 8d#X 8f#	.	8ryy	.	8ryy	.
8r	8r	.	8ryy	.	8ryy	.
8r	8r	.	8ryy	.	8ryy	.
8r	8r	.	8ryy	.	8ryy	.
8AA^^ 8A 8B	8c#^^ 8e 8g#	.	8ryy	.	8ryy	.
8r	8r	.	8ryy	.	8ryy	.
=9	=9	=9	=9	=9	=9	=9
8Dn^^ 8A 8B	8B^^ 8d#X 8f#	.	4ryy	.	8ryy	.
8r	8r	.	.	.	8ryy	.
8r	8r	.	4ryy	.	8ryy	.
4r	4r	.	.	.	8ryy	.
.	.	.	4ryy	.	8ryy	.
8AA^^ 8A 8B	8B^^ 8d# 8f#	.	.	.	8ryy	.
=10	=10	=10	=10	=10	=10	=10
8r	8r^^	.	4.ryy	.	8.ryy	.
8AA^^ 8A 8B	8c#^^ 8e 8g#	.	.	.	.	.
.	.	.	.	.	16ryy	.
8r	8r	.	.	.	16ryy	.
.	.	.	.	.	16ryy	.
8r	8r	.	8ryy	.	4ryy	.
8AA^^ 8A 8B	(8c#^^L 8e 8g#	.	8ryy	.	.	.
8r	8d#J 8f#)	.	8ryy	.	8ryy	.
=11	=11	=11	=11	=11	=11	=11
8Dn^^ 8A 8B	8B^^ 8d#X 8f#	.	4ryy	.	8ryy	.
8r	8r	.	.	.	8ryy	.
8r	8r	.	4ryy	.	8ryy	.
4r	4r	.	.	.	8ryy	.
.	.	.	4ryy	.	8ryy	.
8D^^ 8A 8B	8B^^ 8d# 8f#	.	.	.	8ryy	.
=12	=12	=12	=12	=12	=12	=12
8r^^	8r^^	.	8ryy	.	8ryy	.
8Dn^^ 8A 8B	8B^^ 8d# 8f#	.	8ryy	.	8ryy	.
8r	8r	.	8ryy	.	8ryy	.
8r	8r	.	8ryy	.	8ryy	.
8D^^ 8A 8B	(8d#^L 8f# 8b	.	8ryy	.	8ryy	.
8r	8cc#J)	.	8ryy	.	8ryy	.
=	=	=	=	=	=	=
*-	*-	*-	*-	*-	*-	*-
!!!system-decoration: s1,s2[({(s3,s4)})]
